static/images/mobile/copyright/wikipedia-wordmark-ee.svg

<svg width="120" height="19" viewBox="0 0 120 19" fill="none" xmlns="http://www.w3.org/2000/svg">
<path fill-rule="evenodd" clip-rule="evenodd" d="M15.945 0.00465732C17.4395 -0.00582165 20.7961 0.00465732 20.7961 0.00465732L20.8558 0.0591465V0.578945C20.8558 0.722518 20.7751 0.793785 20.6158 0.793785C19.834 0.830463 19.6737 0.908012 19.3876 1.31987C19.2315 1.54414 18.9234 2.02726 18.6038 2.57011L15.8601 7.70102L15.7827 7.86249L19.1362 14.7235L19.3395 14.7791L24.6213 2.2442C24.8047 1.73907 24.7764 1.38066 24.5406 1.17001C24.3037 0.96566 24.1371 0.843048 23.5251 0.817894L23.0294 0.793788C22.9686 0.793788 22.9109 0.771778 22.8554 0.729858C22.8009 0.691082 22.7726 0.639736 22.7726 0.577903V0.056007L22.8481 0.00256687H28.8153L28.8761 0.056007V0.577903C28.8761 0.719383 28.7953 0.790645 28.6361 0.790645C27.8543 0.825229 27.2748 0.995002 26.8996 1.29787C26.5234 1.60283 26.2299 2.02202 26.0193 2.56907C26.0193 2.56907 21.1619 13.686 19.4998 17.3823C18.8636 18.5937 18.238 18.4826 17.6879 17.3477C16.9989 15.9288 15.5684 12.7994 14.5175 10.486C13.3937 12.8044 11.8549 15.9465 11.0918 17.3613C10.3499 18.6514 9.73889 18.4826 9.25262 17.3948C8.43793 15.4727 7.20917 12.8495 5.97229 10.209L5.97156 10.2072L5.96991 10.2037L5.96863 10.2009L5.9668 10.1969L5.9646 10.1921L5.96277 10.188L5.96057 10.1833L5.95874 10.1794C4.6369 7.35758 3.30719 4.51889 2.46588 2.4978C2.16406 1.77574 1.93665 1.31253 1.7218 1.12914C1.50592 0.947837 1.05743 0.838844 0.375183 0.802162C0.124695 0.774917 0 0.714141 0 0.615631V0.0696292L0.060791 0.0161777C1.17163 0.00989109 6.54779 0.0161777 6.54779 0.0161777L6.60858 0.0696292V0.589428C6.60858 0.733001 6.5174 0.802162 6.3382 0.802162L5.66119 0.830459C5.08063 0.854564 4.79034 1.02853 4.79034 1.35026C4.79034 1.50012 4.85107 1.7443 4.98627 2.07127C6.28577 5.23827 10.7743 14.7026 10.7743 14.7026L10.9388 14.7455L13.8321 8.97453C13.4784 8.19309 13.2528 7.69264 13.2528 7.69264L11.2637 3.78367C11.2637 3.78367 10.8791 3.00188 10.7481 2.74198C10.6841 2.61521 10.6249 2.49723 10.5698 2.38737C9.87201 0.997081 9.82825 0.9099 9.00952 0.80112C8.76221 0.768634 8.63434 0.737201 8.63434 0.614585V0.0664897L8.70874 0.013042C10.3048 0.0109439 13.8564 0.0109478 13.8564 0.0109478L13.9927 0.056007V0.602008C13.9927 0.726718 13.9036 0.790645 13.7223 0.790645L13.3492 0.844089C12.406 0.917446 12.5601 1.30311 13.1868 2.55125L15.095 6.45544L17.2057 2.24524C17.5589 1.47498 17.4866 1.28214 17.3409 1.10398C17.2571 1.00442 16.9763 0.84304 16.3652 0.818939L16.1252 0.792736C16.0645 0.792736 16.0079 0.771778 15.9523 0.730907C15.8978 0.692134 15.8706 0.641826 15.8706 0.5779V0.0580974L15.945 0.00465732ZM31.0024 16.2305C31.0024 16.83 31.2748 17.1842 32.1468 17.2659L32.719 17.3215C32.8007 17.3215 32.8824 17.3749 32.8824 17.4839V18.0561L32.8552 18.1117C32.8552 18.1117 30.7844 18.0561 29.9398 18.0561C29.1768 18.0561 27.0515 18.1117 27.0515 18.1117L26.997 18.0561V17.4839C26.997 17.3749 27.0787 17.3215 27.1877 17.3215L27.7327 17.2659C28.6318 17.1842 28.9044 16.7482 28.9044 16.2305V7.15712C28.9044 6.55977 28.5763 6.39314 27.7327 6.3135L27.1877 6.2569C27.0787 6.2569 26.997 6.23176 26.997 6.14792V5.52018L27.0242 5.46568C27.0242 5.46568 29.1768 5.52018 30.0215 5.52018C30.7571 5.52018 32.8552 5.46568 32.8552 5.46568L32.8824 5.52018V6.11962C32.8824 6.20137 32.8279 6.25586 32.719 6.25586L32.1468 6.3114C31.3021 6.3921 31.0024 6.61112 31.0024 7.15712V16.2305ZM40.188 17.2659C39.3978 17.1297 39.0436 16.83 39.0436 16.2305V12.1927C39.643 12.1927 40.079 12.3268 40.4877 12.8728L43.5121 16.634C43.8936 17.07 43.9209 17.3676 43.9209 17.7229V18.0498L43.9481 18.0771C43.9481 18.0771 44.929 18.0498 45.6102 18.0498C46.3732 18.0498 47.8173 18.0771 47.8173 18.0771L47.899 18.0498V17.4776C47.899 17.3959 47.79 17.3414 47.7083 17.3152L47.572 17.289C47.0271 17.181 46.3732 17.0165 46.0462 16.6361L41.9318 11.6771C41.7956 11.5136 41.6866 11.3784 41.6866 11.2149C41.6866 10.9959 41.8501 10.6982 42.3133 10.2057L44.6566 7.51029C45.6355 6.39539 46.3702 6.33887 47.4294 6.2574L47.4358 6.2569C47.572 6.2569 47.6538 6.20241 47.6538 6.12067V5.49188L47.572 5.46673C47.572 5.46673 46.3732 5.52123 45.6647 5.52123C44.8746 5.52123 42.6675 5.46673 42.6675 5.46673L42.6403 5.49188V6.12067C42.6403 6.20241 42.6948 6.23175 42.8037 6.2569C43.3487 6.34074 43.5939 6.58388 43.5939 6.80291C43.5939 7.32375 42.7493 8.32772 41.6594 9.5287C40.4604 10.8114 39.9427 11.2725 39.0436 11.2725V7.15712C39.0436 6.61112 39.3433 6.47384 40.188 6.3114L40.4877 6.25586C40.5967 6.22861 40.6512 6.20137 40.6512 6.11962V5.52018L40.624 5.46568C40.624 5.46568 38.9084 5.52018 38.1444 5.52018C37.2997 5.52018 35.0654 5.46568 35.0654 5.46568L35.0382 5.52018V6.14792C35.0382 6.23176 35.1199 6.2569 35.2289 6.2569L35.7739 6.3135C36.6458 6.39314 36.9456 6.55977 36.9456 7.15712V16.2305C36.9456 16.7482 36.5913 17.1842 35.7739 17.2659L35.2289 17.3215C35.1199 17.3215 35.0382 17.3749 35.0382 17.4839V18.0561L35.0927 18.1117C35.0927 18.1117 37.327 18.0561 38.0899 18.0561C38.9073 18.0561 40.624 18.1117 40.624 18.1117L40.6512 18.0561V17.4839C40.6512 17.3749 40.5695 17.3477 40.4877 17.3215L40.188 17.2659ZM53.733 16.2305C53.733 16.83 54.0055 17.1842 54.8774 17.2659L55.4496 17.3215C55.5314 17.3215 55.6131 17.3749 55.6131 17.4839V18.0561L55.5859 18.1117C55.5859 18.1117 53.5151 18.0561 52.6704 18.0561C51.9075 18.0561 49.7822 18.1117 49.7822 18.1117L49.7277 18.0561V17.4839C49.7277 17.3749 49.8094 17.3215 49.9184 17.3215L50.4633 17.2659C51.3625 17.1842 51.635 16.7482 51.635 16.2305V7.15712C51.635 6.55977 51.308 6.39314 50.4633 6.3135L49.9184 6.2569C49.8094 6.2569 49.7277 6.23176 49.7277 6.14792V5.52018L49.7549 5.46568C49.7549 5.46568 51.9075 5.52018 52.7521 5.52018C53.4878 5.52018 55.5859 5.46568 55.5859 5.46568L55.6131 5.52018V6.11962C55.6131 6.20137 55.5586 6.25586 55.4496 6.25586L54.8774 6.3114C54.0328 6.3921 53.733 6.61112 53.733 7.15712V16.2305ZM57.9858 6.25691C59.2664 6.33865 59.6206 6.3659 59.6206 7.21057L59.6238 16.3647C59.6238 16.8824 59.3513 17.1276 58.5066 17.2366L57.9344 17.3183C57.8254 17.3445 57.7709 17.3718 57.7709 17.4808V18.053L57.7982 18.1085C57.7982 18.1085 59.8417 18.053 60.6047 18.053C61.4493 18.053 63.6302 18.1085 63.6302 18.1085L63.6553 18.053V17.4808C63.6553 17.3739 63.5726 17.3445 63.4636 17.3183L62.9175 17.2366C62.0446 17.1014 61.7177 16.9631 61.7177 16.3647V12.7156C62.2091 12.9325 62.7541 12.9881 63.4352 12.9881C67.3023 12.9881 68.0925 10.4279 68.0925 8.79197C68.0925 7.373 67.384 5.46673 63.517 5.46673C62.9778 5.46673 62.4153 5.48232 61.892 5.49682C61.4366 5.50943 61.0109 5.52123 60.656 5.52123C60.1964 5.52123 59.4602 5.50279 58.8443 5.48736C58.4013 5.47627 58.0205 5.46673 57.8495 5.46673L57.795 5.49398V6.12067C57.795 6.17622 57.8223 6.25691 57.9858 6.25691ZM63.4897 12.1979C62.9448 12.1979 62.2636 12.1717 61.7187 11.9527L61.7177 7.21162C61.7177 6.50318 62.0446 6.25795 63.3535 6.25795C64.85 6.25795 65.9127 6.77566 65.9127 9.11894C65.9127 11.2149 65.1257 12.1979 63.4897 12.1979ZM98.0375 16.2305C98.0375 16.83 98.31 17.1842 99.1819 17.2659L99.7541 17.3215C99.8358 17.3215 99.9176 17.3749 99.9176 17.4839V18.0561L99.8903 18.1117C99.8903 18.1117 97.8195 18.0561 96.9759 18.0561C96.2119 18.0561 94.0876 18.1117 94.0876 18.1117L94.0321 18.0561V17.4839C94.0321 17.3749 94.1139 17.3215 94.2228 17.3215L94.7688 17.2659C95.667 17.1842 95.9405 16.7482 95.9405 16.2305V7.15712C95.9405 6.55977 95.6125 6.39314 94.7688 6.3135L94.2228 6.2569C94.1139 6.2569 94.0321 6.23176 94.0321 6.14792V5.52018L94.0594 5.46568C94.0594 5.46568 96.2119 5.52018 97.0545 5.52018C97.7891 5.52018 99.8893 5.46568 99.8893 5.46568L99.9144 5.52018V6.11962C99.9144 6.20137 99.8578 6.25586 99.7509 6.25586L99.1787 6.3114C98.333 6.3921 98.0343 6.61112 98.0343 7.15712L98.0375 16.2305ZM107.222 17.3215L106.432 17.2659C105.424 17.1842 105.069 16.5837 105.342 15.8983L106.923 11.9464C107.059 11.5943 107.222 11.4853 107.876 11.4853H113.546L115.208 16.0922C115.481 16.853 115.098 17.1821 114.063 17.2628L113.3 17.3183C113.161 17.3183 113.106 17.399 113.106 17.5374V18.053L113.132 18.1085C113.132 18.1085 115.803 18.053 116.757 18.053C117.82 18.053 119.918 18.1085 119.918 18.1085L120 18.053V17.5374C120 17.399 119.864 17.3183 119.726 17.3183L119.428 17.2921C118.338 17.1832 117.792 16.7755 117.409 15.7118L111.824 0.943645C111.607 0.398696 111.469 0.125175 111.09 0.125175C110.679 0.125175 110.46 0.398693 110.162 1.10713L104.114 15.2769C103.351 17.0207 102.672 17.2397 101.472 17.3215C101.334 17.3215 101.253 17.4032 101.253 17.5384V18.0561L101.308 18.1117C101.308 18.1117 103.052 18.0561 103.762 18.0561C104.415 18.0561 107.385 18.1117 107.385 18.1117L107.44 18.0561V17.5384C107.44 17.4032 107.331 17.3215 107.222 17.3215ZM110.464 3.06895L113.107 10.343V10.344H108.365C107.766 10.344 107.576 10.2644 107.685 9.98981L110.41 3.06895H110.464ZM74.263 16.2305C74.263 16.83 74.5355 17.1842 75.4074 17.2659L75.9796 17.3215C76.0613 17.3215 76.1431 17.3749 76.1431 17.4839V18.0561L76.1158 18.1117C76.1158 18.1117 74.045 18.0561 73.2004 18.0561C72.4374 18.0561 70.3121 18.1117 70.3121 18.1117L70.2576 18.0561V17.4839C70.2576 17.3749 70.3394 17.3215 70.4484 17.3215L70.9933 17.2659C71.8925 17.1842 72.165 16.7482 72.165 16.2305V7.15712C72.165 6.55977 71.838 6.39314 70.9933 6.3135L70.4484 6.2569C70.3394 6.2569 70.2576 6.23176 70.2576 6.14792V5.52018L70.2849 5.46568C70.2849 5.46568 72.4374 5.52018 73.2821 5.52018C74.0178 5.52018 76.1158 5.46568 76.1158 5.46568L76.1431 5.52018V6.11962C76.1431 6.20137 76.0886 6.25586 75.9796 6.25586L75.4074 6.3114C74.5627 6.3921 74.263 6.61112 74.263 7.15712V16.2305ZM79.0963 17.2691L78.4696 17.3246C78.3616 17.3246 78.3061 17.4064 78.3092 17.4839V18.0561L78.3354 18.1117C78.3354 18.1117 80.4073 18.0561 81.2258 18.0561C81.5499 18.0561 81.8898 18.0643 82.3089 18.0744C82.9821 18.0906 83.8594 18.1117 85.2028 18.1117C88.2252 18.1117 91.6049 16.6969 91.6049 11.9275C91.6049 8.30361 89.3696 5.46987 84.8193 5.46987C84.437 5.46987 83.5701 5.48574 82.7719 5.50035C82.0909 5.51282 81.46 5.52437 81.2226 5.52437C80.7311 5.52437 78.3323 5.46987 78.3323 5.46987L78.3061 5.52437V6.12381C78.3061 6.20555 78.39 6.26005 78.4989 6.26005L79.0963 6.31664L79.1581 6.3221C80.0033 6.39667 80.1872 6.4129 80.1872 7.10682V11.2217H78.3077V12.3598H80.1872V16.0985C80.1872 16.9421 79.9147 17.1873 79.0963 17.2691ZM82.2853 12.3598V16.0985C82.2853 16.8593 82.475 17.3246 84.5468 17.3246C87.543 17.3246 89.2344 16.2096 89.2344 12.3918C89.2344 9.55909 88.6067 6.26005 84.0291 6.26005C82.9664 6.26005 82.2853 6.42354 82.2853 7.10682V11.2217H85.3475V12.3598H82.2853Z" fill="black"/>
</svg>

<svg xmlns="http://www.w3.org/2000/svg" width="120" height="19" fill="none"><path fill="#000" fill-rule="evenodd" d="M15.945.005c1.494-.01 4.851 0 4.851 0l.06.054v.52c0 .144-.08.215-.24.215-.782.036-.942.114-1.228.526-.157.224-.465.707-.784 1.25L15.86 7.701l-.077.161 3.353 6.861.204.056L24.62 2.244c.184-.505.155-.863-.08-1.074-.237-.204-.404-.327-1.016-.352L23.03.794a.286.286 0 0 1-.174-.064.18.18 0 0 1-.082-.152V.056l.075-.053h5.967l.061.053v.522c0 .141-.08.213-.24.213-.782.034-1.361.204-1.736.507-.377.305-.67.724-.88 1.271 0 0-4.858 11.117-6.52 14.813-.636 1.212-1.262 1.1-1.812-.034-.69-1.42-2.12-4.549-3.17-6.862-1.124 2.318-2.663 5.46-3.426 6.875-.742 1.29-1.353 1.122-1.84.034-.814-1.922-2.043-4.545-3.28-7.186v-.002l-.002-.003-.001-.003-.002-.004-.002-.005-.002-.004-.002-.005-.002-.004C4.637 7.358 3.307 4.52 2.466 2.498c-.302-.722-.53-1.185-.744-1.369C1.506.948 1.057.84.375.802.125.775 0 .714 0 .616V.07L.06.016c1.112-.006 6.488 0 6.488 0l.06.054v.52c0 .143-.09.212-.27.212L5.661.83c-.58.025-.87.199-.87.52 0 .15.06.394.195.721 1.3 3.167 5.788 12.632 5.788 12.632l.165.043 2.893-5.771-.58-1.282-1.988-3.91s-.385-.781-.516-1.041l-.178-.355C9.872.997 9.828.91 9.01.801 8.762.77 8.634.737 8.634.615V.066L8.71.013c1.596-.002 5.147-.002 5.147-.002l.137.045v.546c0 .125-.09.189-.27.189l-.374.053c-.943.073-.789.46-.162 1.707l1.908 3.904 2.11-4.21c.354-.77.282-.963.136-1.141-.084-.1-.365-.261-.976-.285l-.24-.026a.287.287 0 0 1-.173-.062.179.179 0 0 1-.081-.153v-.52l.074-.053ZM31.002 16.23c0 .599.273.953 1.145 1.035l.572.056c.082 0 .163.053.163.162v.572l-.027.056s-2.07-.056-2.915-.056c-.763 0-2.889.056-2.889.056l-.054-.056v-.572c0-.11.082-.163.19-.163l.546-.055c.899-.082 1.171-.518 1.171-1.035V7.156c0-.597-.328-.764-1.171-.843l-.545-.057c-.11 0-.191-.025-.191-.11V5.52l.027-.054s2.153.054 2.997.054c.736 0 2.834-.054 2.834-.054l.027.054v.6c0 .081-.054.136-.163.136l-.572.055c-.845.081-1.145.3-1.145.846v9.073Zm9.186 1.035c-.79-.136-1.144-.436-1.144-1.035v-4.038c.599 0 1.035.134 1.444.68l3.024 3.761c.382.436.409.734.409 1.089v.327l.027.027s.981-.027 1.662-.027c.763 0 2.207.027 2.207.027l.082-.027v-.572c0-.082-.109-.137-.19-.163l-.137-.026c-.545-.108-1.199-.273-1.526-.653l-4.114-4.959c-.136-.163-.245-.299-.245-.462 0-.22.163-.517.626-1.01l2.344-2.695c.979-1.115 1.713-1.171 2.772-1.253h.007c.136 0 .218-.055.218-.136v-.63l-.082-.024s-1.199.054-1.907.054c-.79 0-2.998-.054-2.998-.054l-.027.025v.629c0 .081.055.11.164.136.545.084.79.327.79.546 0 .52-.845 1.525-1.935 2.726-1.199 1.282-1.716 1.744-2.615 1.744V7.157c0-.546.3-.683 1.144-.846l.3-.055c.109-.027.163-.055.163-.136v-.6l-.027-.054s-1.716.054-2.48.054c-.844 0-3.079-.054-3.079-.054l-.027.054v.628c0 .084.082.109.19.109l.546.057c.872.08 1.172.246 1.172.843v9.073c0 .518-.355.954-1.172 1.036l-.545.056c-.11 0-.19.053-.19.162v.572l.054.056s2.234-.056 2.997-.056c.817 0 2.534.056 2.534.056l.027-.056v-.572c0-.11-.082-.136-.163-.163l-.3-.055Zm13.545-1.035c0 .599.273.953 1.144 1.035l.573.056c.081 0 .163.053.163.162v.572l-.027.056s-2.07-.056-2.916-.056c-.763 0-2.888.056-2.888.056l-.054-.056v-.572c0-.11.081-.163.19-.163l.545-.055c.9-.082 1.172-.518 1.172-1.035V7.156c0-.597-.327-.764-1.172-.843l-.545-.057c-.109 0-.19-.025-.19-.11V5.52l.027-.054s2.152.054 2.997.054c.736 0 2.834-.054 2.834-.054l.027.054v.6c0 .081-.054.136-.163.136l-.573.055c-.844.081-1.144.3-1.144.846v9.073Zm4.253-9.974c1.28.082 1.635.109 1.635.954l.003 9.154c0 .517-.273.763-1.117.872l-.573.081c-.109.026-.163.054-.163.163v.572l.027.055s2.044-.055 2.807-.055c.844 0 3.025.055 3.025.055l.025-.055v-.572c0-.107-.082-.137-.191-.163l-.547-.081c-.872-.136-1.2-.274-1.2-.872v-3.65c.492.217 1.037.273 1.718.273 3.867 0 4.657-2.56 4.657-4.196 0-1.419-.708-3.325-4.575-3.325-.54 0-1.102.015-1.625.03-.455.012-.881.024-1.236.024-.46 0-1.196-.018-1.812-.034-.443-.01-.824-.02-.995-.02l-.054.027v.627c0 .055.027.136.19.136Zm5.504 5.94c-.545 0-1.226-.025-1.771-.244l-.001-4.741c0-.709.327-.954 1.635-.954 1.497 0 2.56.518 2.56 2.86 0 2.097-.787 3.08-2.423 3.08Zm34.547 4.034c0 .599.273.953 1.145 1.035l.572.056c.082 0 .164.053.164.162v.572l-.028.056s-2.07-.056-2.914-.056c-.764 0-2.888.056-2.888.056l-.056-.056v-.572c0-.11.082-.163.19-.163l.547-.055c.898-.082 1.171-.518 1.171-1.035V7.156c0-.597-.328-.764-1.171-.843l-.546-.057c-.11 0-.19-.025-.19-.11V5.52l.026-.054s2.153.054 2.996.054c.734 0 2.834-.054 2.834-.054l.025.054v.6c0 .081-.056.136-.163.136l-.572.055c-.846.081-1.145.3-1.145.846l.003 9.073Zm9.185 1.09-.79-.055c-1.008-.082-1.363-.682-1.09-1.368l1.581-3.952c.136-.352.299-.46.953-.46h5.67l1.662 4.606c.273.761-.11 1.09-1.145 1.17l-.763.056c-.139 0-.194.081-.194.22v.515l.026.055s2.671-.055 3.625-.055c1.063 0 3.161.055 3.161.055l.082-.055v-.516c0-.138-.136-.219-.274-.219l-.298-.026c-1.09-.109-1.636-.517-2.019-1.58L111.824.944c-.217-.545-.355-.819-.734-.819-.411 0-.63.274-.928.982l-6.048 14.17c-.763 1.744-1.442 1.963-2.642 2.045-.138 0-.219.081-.219.216v.518l.055.056s1.744-.056 2.454-.056c.653 0 3.623.056 3.623.056l.055-.056v-.518a.215.215 0 0 0-.218-.216Zm3.242-14.252 2.643 7.274v.001h-4.742c-.599 0-.789-.08-.68-.354l2.725-6.921h.054ZM74.263 16.23c0 .599.272.953 1.144 1.035l.573.056c.081 0 .163.053.163.162v.572l-.027.056s-2.071-.056-2.916-.056c-.763 0-2.888.056-2.888.056l-.054-.056v-.572c0-.11.081-.163.19-.163l.545-.055c.9-.082 1.172-.518 1.172-1.035V7.156c0-.597-.327-.764-1.172-.843l-.545-.057c-.109 0-.19-.025-.19-.11V5.52l.027-.054s2.152.054 2.997.054c.736 0 2.834-.054 2.834-.054l.027.054v.6c0 .081-.054.136-.163.136l-.573.055c-.844.081-1.144.3-1.144.846v9.073Zm4.833 1.038-.626.056a.152.152 0 0 0-.16.159v.572l.025.056s2.072-.056 2.89-.056c.325 0 .665.008 1.084.018.673.017 1.55.038 2.894.038 3.022 0 6.402-1.415 6.402-6.184 0-3.624-2.235-6.458-6.786-6.458-.382 0-1.249.016-2.047.03-.681.013-1.312.024-1.55.024-.49 0-2.89-.054-2.89-.054l-.026.054v.6c0 .082.084.136.193.136l.597.057.062.005c.845.075 1.03.09 1.03.785v4.115h-1.88v1.138h1.88v3.739c0 .843-.273 1.088-1.092 1.17Zm3.19-4.91v3.74c0 .76.189 1.226 2.26 1.226 2.997 0 4.688-1.115 4.688-4.933 0-2.833-.627-6.132-5.205-6.132-1.063 0-1.744.164-1.744.847v4.115h3.063v1.138h-3.063Z" clip-rule="evenodd"/></svg>
